X:1
T:andata
T:andata
T:Ryuichi Sakamoto
C:Ryuichi Sakamoto
%%score { ( 1 3 ) | ( 2 4 ) }
L:1/8
Q:1/4=92
M:4/4
K:B
V:1 treble nm="Piano" snm="Pno."
V:3 treble 
V:2 bass 
V:4 bass 
V:1
"G#m"!p! [B,G]8 |"G#m9/F#" [DAB]8 | [EG]8 | c8 | [B,D]8 | B8 | C8 | A8 ||"G#m9" [A,B,D]8 | %9
"G#m/F#" [B,D]8 |"C#m7" G8- | G8 | [DF]8 | d8 | E8 | c8 | D8- | D4"G#m9/F#" [A,D]4 | %18
"Emaj7" [B,D]4 C2 B,2 | C4 ^^C4 |"G#m/D#" [G,D-]8 |"D#" [A,D^^F]8 |:"G#m"!mp! [B,DG]8 | %23
"G#m9/F#" [DAB]8 | [E-GB]8 | [EAc-]8 | c4 B2 A2 |"Emaj7" B8- |"A#m7b5" B4 A2 G2 |"D#sus4" A8 | %30
"G#m9" [A,B,D]8 |"G#m/F#" [B,D]8 |"C#m7" [GB]8- |"F#911" [GB]8 |"Bmaj7""_cresc." F8- |"Emaj9" F8 | %36
 E8 | [Ec-]8 | c4 B2 A2 | [DG]8 |1 [B,D]4 C2 B,2 | C4 ^^C4 |"_dim." [B,DG]8 | [A,D^^F]8 :|2 %44
 [B,D]4 C2 B,2 || C4 [A,C]4 |"B9/D#" [B,CF]8- | [B,CF]4 E2 D2 |"C#m7" [G,E-]8 |"F#7" E4 D2 C2 | %50
"Bmaj7" [F,A,D]8 |"Emaj7" [E,G,B,]8 |"C#m" [E,G,C]8 |"D#sus4" [G,A,-]8 |"G#9" A,8 |"G#m" B,8- | %56
 [E,-G,-B,]8 | [E,G,A,]4 [D,G,]4 | [D,G,]8- | [D,G,]8- | [D,G,]8- | [D,G,]8- | [D,G,]8- | %63
 [D,G,-]8 | G,8 |] %65
V:2
 [G,,D,G,]8 | [F,,F,]8 | [C,B,]8 | F,4 A,2 G,2 | [B,,A,]8 | E,4 G,2 ^^F,2 | A,,8 | D,8 || %8
 [G,,D,G,]8 | [F,,F,]8 | [C,B,]8 | F,4 A,2 G,2 | B,,8 | E,8 | [A,,G,]8 | D,4 ^^F,2 ^E,2 | %16
 [G,,-^^F,]8 | [G,,G,]4 [F,,^^F,]4 | [E,,B,,E,]8- | [E,,B,,E,]8 | [D,,D,]8- | [D,,D,]8 |: %22
 [G,,D,G,]8 | [F,,D,F,]8 | [C,,B,,]8 | [F,,C,F,]8 | [B,,F,A,-]8 | A,4 G,2 ^^F,2 | [A,,E,G,-]8 | %29
 G,4 ^^F,4 | [G,,D,G,]8 | [F,,D,F,]8 | [C,,B,,]8 | [F,,C,F,]8 | [B,,F,A,-]8 | A,4 G,2 ^^F,2 | %36
 [A,,E,G,-]8 | G,4 ^^F,2 ^E,2 | [G,,D,^^F,]8 | [G,,D,G,]4 [F,,D,F,]4 |1 [E,,B,,E,]8- | %41
 [E,,B,,E,]8 | [D,,B,,D,]8 | [D,,A,,D,]8 :|2 [E,,B,,E,]8- || [E,,B,,E,]8 | [D,,B,,D,]8- | %47
 [D,,B,,D,]8 | [C,,C,]8 | [F,,C,F,]8 | [B,,,B,,]8 | [E,,D,]8 | [C,,G,,C,]8 | [D,,A,,D,]8 | %54
 [G,,D,G,]8 | [G,,G,]4 [F,,F,]4 | [E,,D,]8- | [E,,D,]8 | [D,,G,,]8- | [D,,G,,]8 | G,,8- | G,,8- | %62
 G,,8- | G,,8 | z8 |] %65
V:3
 x8 | x8 |"C#m9" d4 c2 B2 | x8 |"Bmaj7" z4 B2 A2 | x8 |"A#m7b5" z4 A2 G2 | x8 || x8 | G4 B4 | %10
 f4 e2 d2 |"F#9" e8 |"Bmaj7" z4 d2 c2 | x8 |"A#m7b5" z4 c2 B2 | x8 |"G#maj" z4 B2 A2 |"G#m" B8 | %18
 G8 | x8 | x8 | x8 |: x8 | x8 |"C#m9" d4 c2 B2 | x8 |"Bmaj9" [CD-]8 | D8 | [A,C]8- | [A,C]8 | x8 | %31
 G4- [GB]4 | f4 e2 d2 | e8- | e4 d2 c2 | d8- |"A#m7b5" d4 c2 B2 | x8 |"G#maj" D8 | %39
"G#m" B4"G#m9/F#" A4 |1"Emaj7" G8- | G8 | x8 | x8 :|2"Emaj7" G8- || G4"F#7/E" F2 E2 | x8 | x8 | %48
 B,4 A,4- | A,8 | z8 | x8 | x8 | x8 | x8 | x4"G#m/F#" x4 | x8 | x8 | x8 | x8 | x8 | x8 | x8 | x8 | %64
 x8 |] %65
V:4
 x8 | x8 | x8 | x8 | x8 | x8 | G,8- | G,4 ^^F,4 || x8 | x8 | x8 | x8 | A,8- | A,4 G,2 ^^F,2 | x8 | %15
 x8 | x8 | x8 | x8 | x8 | x8 | x8 |: x8 | x8 | x8 | z4 A,2 G,2 | x8 | [E,,B,,E,]8 | x8 | %29
 [D,,A,,D,]8 | x8 | x8 | x8 | z4 A,2 G,2 | x8 | [E,,B,,E,]8 | x8 | [D,,A,,D,]8 | x8 | x8 |1 x8 | %41
 x8 | x8 | x8 :|2 x8 || x8 | x8 | x8 | x8 | x8 | x8 | x8 | x8 | x8 | x8 | x8 | x8 | x8 | x8 | x8 | %60
 x8 | x8 | x8 | x8 | x8 |] %65

